!!!COM: Bach, Johann Sebastian
!!!CDT: 1685/3//-1750/7/28/
!!!OTL@@DE: Helft mir Gott's Guete preisen
!!!AGN: 4-Part Chorale; Chorale Prelude
!!!SCT: BH 088
!!!SCT: BWV 28
**harm	**root	**kern	**kern	**kern	**kern
!	!	!bass	!tenor	!alto	!soprno
*	*Iorgan	*Iorgan	*Iorgan	*Iorgan	*Iorgan
*	*	*clefF4	*clefF4	*clefG2	*clefG2
*M4/4	*M4/4	*M4/4	*M4/4	*M4/4	*M4/4
*met(c)	*met(c)	*met(c)	*met(c)	*met(c)	*met(c)
*MM60	*MM60	*MM60	*MM60	*MM60	*MM60
*k[f#]	*k[f#]	*k[f#]	*k[f#]	*k[f#]	*k[f#]
*e:	*e:	*e:	*e:	*e:	*e:
*>[A,A,B]	*>[A,A,B]	*>[A,A,B]	*>[A,A,B]	*>[A,A,B]	*>[A,A,B]
*>A	*>A	*>A	*>A	*>A	*>A
i	4AA	4EE	4G	4B	4e
=1	=1	=1	=1	=1	=1
i	4AA	4E	4G	4B	4e
Vb	4EE	4D#	4F#	4B	4f#
i	4AA	4E	4E	4B	4g
Vb/-VII	4DD	4C#	4E	4A	4a
=2	=2	=2	=2	=2	=2
I/-VII	4.GG	2D	8D	4A	4.f#
.	.	.	8C#	.	.
.	.	.	8D	8d	.
viiob/-VII	8FF#	.	8E	8c#	8g
I/-VII;	4GG;	4DD;	4F#;	4d;	4a;
Vb	4EE	4D#	4F#	4B	4b
=3	=3	=3	=3	=3	=3
i	4AA	8E	8E	4B	4g
.	.	8D	8F#	.	.
VI	4FF	8C	4G	4e	4e
.	.	8BB	.	.	.
ii7b	4BB	4AA	4c	4e	4f#
V	4EE	4BB	8B	4d#	4f#
.	.	.	8A	.	.
=4	=4	=4	=4	=4	=4
i;	2.AA;	2.EE;	2.G;	2.B;	2.e;
=:|!	=:|!	=:|!	=:|!	=:|!	=:|!
*>B	*>B	*>B	*>B	*>B	*>B
i	4AA	4EE	4G	4e	4b
=5	=5	=5	=5	=5	=5
viiob	4GG#	4FF#	4A	8e	4a
.	.	.	.	8d#	.
ib	4AA	4GG	4B	4e	4g
ii7b	8BB	8AA	8c	8e	4f#
V	8EE	8BB	8B	8d#	.
ivb	4DD	4C	8B	8e	4e
.	.	.	8A	8E	.
=6	=6	=6	=6	=6	=6
V;	2.EE;	2.BB;	2.D#;	2.B;	2.f#;
V	4EE	4BB	4B	4d#	4f#
!!linebreak: 2
=7	=7	=7	=7	=7	=7
i	4AA	4E	4B	4e	4g
Vb/III	4GG	4F#	4A	4d	4a
III	4CC	8G	8G	4d	4b
.	.	8F#	8A	.	.
i	4AA	8E	4B	4e	4g
.	.	8D	.	.	.
=8	=8	=8	=8	=8	=8
Vb/-VII	4DD	8C#	4E	4e	4.a
.	.	8BB	.	.	.
V/-VII	4DD	4AA	4A	8d	.
.	.	.	.	8c#	8g
I/-VII;	4GG;	4D;	4A;	4d;	4f#;
V7d/III	4GG	4C	4A	4d	4f#
=9	=9	=9	=9	=9	=9
IIIb	4CC	4BB	4D	4d	4g
iv	4DD	4AA	8E	4c	4a
.	.	.	8F#	.	.
III	4CC	4GG	8G	4B	4b
.	.	.	8A	.	.
i	4AA	8FF#	4B	4e	4g
.	.	8EE	.	.	.
=10	=10	=10	=10	=10	=10
Ib/-VII	4GG	8FF#	4A	8e	4.a
.	.	8GG	.	8d	.
V/-VII	4DD	4AA	4E	8c#	.
.	.	.	.	8B	8g
I/-VII;	4GG;	4DD;	4F#;	4A;	4f#;
Vb	4EE	4D#	4F#	4B	4b
=11	=11	=11	=11	=11	=11
i	8AA	8E	8E	4B	8g
vb	8EE	8D	8F#	.	8f#
VI	4FF	8C	4G	4e	4e
.	.	8BB	.	.	.
ii7b	4BB	4AA	4c	4e	4f#
V	4EE	4BB	8B	4d#	4f#
.	.	.	8A	.	.
=12	=12	=12	=12	=12	=12
I;	2.AA;	2.EE;	2.G#;	2.B;	2.e;
==	==	==	==	==	==
*-	*-	*-	*-	*-	*-
!!!ONB: m.7, b.3: bass note 8C should perhaps be 8c
!!chor2scor: -l 2 -s 0.6 -o %b.pmx
!!!YEC: Copyright 1994, David Huron
!!!YEC: Changes/Additions 2001 by Craig Stuart Sapp
!!!YEN: United States of America
!!!SMA: 371 Bach Chorales, edited by Ludwig Erk, C.F. Peters
!!!PDT: 1850, 1865
!!!ONB: Harmony and Root analysis done manually
